dist/intermediate-svg/VIN.svg

<?xml version="1.0" encoding="utf-8"?><svg width="24" height="24" fill="none" xmlns="http://www.w3.org/2000/svg" viewBox="0 0 24 24"><circle cx="7.235" cy="16.294" r="1.618" stroke="#333"/><circle cx="16.765" cy="16.294" r="1.618" stroke="#333"/><path d="M8.82353 16.2941H15.1765M18.3529 16.2941L21 16.0294V14.8972C21 14.4668 20.7246 14.0847 20.3162 13.9485L17.891 13.1401C17.8461 13.1252 17.8023 13.107 17.76 13.0859L13.7994 11.1056C13.6605 11.0361 13.5074 11 13.3522 11H9.35294H7.58608C7.359 11 7.13869 11.0773 6.96138 11.2191L4.7275 13.0062C4.63538 13.0799 4.53095 13.1367 4.41904 13.174L3.68377 13.4191C3.27543 13.5552 3 13.9374 3 14.3678V16.2941H5.64706" stroke="#333"/><path d="M16 8L18 10L22 6" stroke="#0094FF"/></svg>

<?xml version="1.0" encoding="utf-8"?><svg width="24" height="24" fill="none" xmlns="http://www.w3.org/2000/svg" viewBox="0 0 24 24"><circle cx="7.235" cy="16.294" r="1.618" stroke="#333"/><circle cx="16.765" cy="16.294" r="1.618" stroke="#333"/><path d="M8.824 16.294h6.353m3.176 0L21 16.03v-1.132a1 1 0 00-.684-.949l-2.425-.808a.998.998 0 01-.131-.054l-3.96-1.98a1 1 0 00-.448-.106H7.586a1 1 0 00-.625.22l-2.234 1.786a1 1 0 01-.308.168l-.735.245a1 1 0 00-.684.949v1.926h2.647" stroke="#333"/><path d="M16 8l2 2 4-4" stroke="#0094FF"/></svg>
